tela-icon-theme/src/scalable/apps/stellarium.svg

<svg width="64" height="64" enable-background="new 0 0 48 48" version="1.1" viewBox="0 0 64 64" xmlns="http://www.w3.org/2000/svg">
 <path d="m14 6c-4.4319 0-8 3.5681-8 8v36c0 4.4319 3.5681 8 8 8h36c4.4319 0 8-3.5681 8-8v-36c0-4.4319-3.5681-8-8-8h-36z" fill="#3c1d66"/>
 <circle cx="43.647" cy="21.031" r="8.2105" fill="#3a3670" stroke="#000" stroke-linecap="round" stroke-linejoin="round" stroke-opacity=".25" stroke-width="0"/>
 <path d="m49.941 15.762c0.27505 0.81968 0.42968 1.6955 0.42968 2.6068 0 4.5349-3.6756 8.2105-8.2105 8.2105-2.5288 0-4.7881-1.144-6.2934-2.9421 1.0906 3.2555 4.1586 5.6037 7.7808 5.6037 4.5349 0 8.2105-3.6756 8.2105-8.2105-0.0014-2.0061-0.72253-3.8425-1.9172-5.2684z" fill="#e6e6e6" stroke="#000" stroke-linecap="round" stroke-linejoin="round" stroke-opacity=".25" stroke-width="0"/>
 <path d="m6 19.603s26.571 1.4273 34.453 25.293l-4.0998 7.6372-18.106-0.85116-12.247-4.2517z" fill="#462e7a" stroke="#000" stroke-linecap="round" stroke-linejoin="round" stroke-opacity=".25" stroke-width="0"/>
 <path d="m55.164 30.992c-5.359-0.048516-17.352 1.8142-27.559 17.498l17.375 4.8613 12.779-1.4316c0.15094-0.61584 0.24023-1.2563 0.24023-1.9199v-18.764s-1.0496-0.22797-2.8359-0.24414z" fill="#ac776d"/>
 <path d="m55.164 39.203c-5.359-0.048516-17.352 1.8142-27.559 17.498l29.959-4.1074c0.27734-0.81361 0.43555-1.6839 0.43555-2.5938v-10.553s-1.0496-0.22797-2.8359-0.24414z" fill="#b8ad99"/>
 <path d="m50.373 43.135c-13.488 0.15558-25.086 5.4863-25.086 5.4863l-0.12891 5.2734h31.832c0.64116-1.152 1.0098-2.4775 1.0098-3.8945v-6.3516c-2.5658-0.39278-5.1292-0.54248-7.627-0.51367z" fill="#574a5c"/>
 <path d="m6 33.916v16.084c0 4.4319 3.5681 8 8 8h36c4.4319 0 8-3.5681 8-8v-2.2793c-14.353 7.4716-26.674-2.0332-26.674-2.0332-16.535-11.404-21-11.238-25.326-11.771z" fill="#312b33"/>
 <circle cx="13.524" cy="17.455" r="1.6927" fill="#e5e5e5" stroke="#000" stroke-linecap="round" stroke-linejoin="round" stroke-opacity=".25" stroke-width="0"/>
 <circle cx="16.627" cy="21.633" r="1.0879" fill="#e5e5e5" stroke="#000" stroke-linecap="round" stroke-linejoin="round" stroke-opacity=".25" stroke-width="0"/>
 <circle cx="28.943" cy="27.107" r="1.0879" fill="#e5e5e5" stroke="#000" stroke-linecap="round" stroke-linejoin="round" stroke-opacity=".25" stroke-width="0"/>
 <circle cx="19.487" cy="13.707" r=".88674" fill="#e5e5e5" stroke="#000" stroke-linecap="round" stroke-linejoin="round" stroke-opacity=".25" stroke-width="0"/>
 <circle cx="14.893" cy="10.39" r=".64453" fill="#e5e5e5" stroke="#000" stroke-linecap="round" stroke-linejoin="round" stroke-opacity=".25" stroke-width="0"/>
 <circle cx="18.999" cy="19.969" r=".64453" fill="#e5e5e5" stroke="#000" stroke-linecap="round" stroke-linejoin="round" stroke-opacity=".25" stroke-width="0"/>
 <circle cx="21.735" cy="21.337" r=".64453" fill="#e5e5e5" stroke="#000" stroke-linecap="round" stroke-linejoin="round" stroke-opacity=".25" stroke-width="0"/>
 <circle cx="20.367" cy="30.916" r=".64453" fill="#e5e5e5" stroke="#000" stroke-linecap="round" stroke-linejoin="round" stroke-opacity=".25" stroke-width="0"/>
</svg>

<svg xmlns="http://www.w3.org/2000/svg" width="64" height="64"><path fill="#3c1d66" d="M14 6c-4.432 0-8 3.568-8 8v36c0 4.432 3.568 8 8 8h36c4.432 0 8-3.568 8-8V14c0-4.432-3.568-8-8-8H14z"/><circle cx="43.647" cy="21.031" r="8.21" fill="#3a3670"/><path fill="#e6e6e6" d="M49.941 15.762c.275.82.43 1.696.43 2.607a8.21 8.21 0 0 1-14.504 5.268c1.09 3.256 4.158 5.604 7.78 5.604a8.21 8.21 0 0 0 8.211-8.21 8.184 8.184 0 0 0-1.917-5.269z"/><path fill="#462e7a" d="M6 19.603s26.571 1.427 34.453 25.293l-4.1 7.637-18.106-.851L6 47.43z"/><path fill="#ac776d" d="M55.164 30.992c-5.359-.049-17.352 1.814-27.559 17.498l17.375 4.861 12.779-1.431c.15-.616.24-1.257.24-1.92V31.236s-1.05-.228-2.836-.244z"/><path fill="#b8ad99" d="M55.164 39.203c-5.359-.049-17.352 1.814-27.559 17.498l29.959-4.107A8.019 8.019 0 0 0 58 50V39.447s-1.05-.228-2.836-.244z"/><path fill="#574a5c" d="M50.373 43.135c-13.488.156-25.086 5.486-25.086 5.486l-.129 5.274H56.99A7.979 7.979 0 0 0 58 50V43.65a46.89 46.89 0 0 0-7.627-.514z"/><path fill="#312b33" d="M6 33.916V50c0 4.432 3.568 8 8 8h36c4.432 0 8-3.568 8-8v-2.28c-14.353 7.472-26.674-2.032-26.674-2.032C14.791 34.282 10.326 34.448 6 33.916z"/><circle cx="13.524" cy="17.455" r="1.693" fill="#e5e5e5"/><circle cx="16.627" cy="21.633" r="1.088" fill="#e5e5e5"/><circle cx="28.943" cy="27.107" r="1.088" fill="#e5e5e5"/><circle cx="19.487" cy="13.707" r=".887" fill="#e5e5e5"/><circle cx="14.893" cy="10.39" r=".645" fill="#e5e5e5"/><circle cx="18.999" cy="19.969" r=".645" fill="#e5e5e5"/><circle cx="21.735" cy="21.337" r=".645" fill="#e5e5e5"/><circle cx="20.367" cy="30.916" r=".645" fill="#e5e5e5"/></svg>
